!!!!SEGMENT: pl-wtm--r-1151-1_dobrzynski-ignacy-feliks--rojenia-wiosenne.krn
!!!cenid: 18xx:1759
!!!COM: Dobrzyński, Ignacy Feliks
!!!COM-rismID: pe30020642
!!!CDT: 1807/02/15-1867/10/09
!!!CNT: Polish
!!!OTL: Rojenia wiosenne
!!!PDT:
!!!AGN: Secular
!!!YEC: Copyright 2022 Narodowy Instytut Fryderyka Chopina (https://polishscores.org)
!!!YEM: License CC-BY-4.0 (https://creativecommons.org/licenses/by/4.0)
!!!SMS-siglum: PL-Wtm
!!!SMS-shelfmark: R 1151/1
!!!SMS-shelfwork: W
!!!SMS-variant:
!!!SMS-altvar:
!!!NIFC-rismSourceID: 1001058029
!!!NIFC-rismChildID: 1001058029
!!!NIFC-islandoraID:
!!!URL-pdf-islandora:
!!!URL-scan:
!!!IIIF:
!!!ONB-nifc: UWAGA: na podstawie partytury
!!!AIN: 1 forte 1 vox
!!!key:
**kern	**kern	**dynam	**kern	**text	**dynam
*part2	*part2	*	*part1	*	*
*staff3	*staff2	*	*staff1	*	*
*Iforte	*Iempty	*	*Ivox	*	*
*I"Fortepian	*	*	*I"Głos	*	*
*mI"Pianoforte	*	*	*mI"Voce	*	*
*I'pf	*	*	*I'v	*	*
*clefF4	*clefG2	*	*clefG2	*	*
*k[b-]	*k[b-]	*	*k[b-]	*	*
*F:	*F:	*	*F:	*	*
*M6/8	*M6/8	*	*M6/8	*	*
=1	=1	=1	=1	=1	=1
!LO:MO:null:mod=!LO&colon;TX&colon;a&colon;i&colon;t=Allegretto vivace	!	!	!	!	!
!	!	!	!LO:TX:a:i:t=Allegretto vivace	!	!
4F 4FF/	4ff 4cc 4a 4f\	sf	2.ryy	.	.
8r	8r	.	.	.	.
[4.FF/	8cccL 8aa'\	.	.	.	.
.	8ddd 8ff'\	.	.	.	.
.	8bb-J 8gg'\	.	.	.	.
=2	=2	=2	=2	=2	=2
2.FF/_	8cccL 8ee'\	.	2.ryy	.	.
.	8aa 8ff'\	.	.	.	.
.	8bb-J 8dd'\	.	.	.	.
.	8ggL 8ee'\	.	.	.	.
.	8aa 8cc'\	>	.	.	.
.	8ffJ 8dd'\	.	.	.	.
=3	=3	=3	=3	=3	=3
4FF/]	8ggL 8b-'\	.	2.ryy	.	.
.	8ee 8cc'\	.	.	.	.
8r	8ffJ 8a'\	.	.	.	.
4r	8ddL 8b-'\	.	.	.	.
.	8ee 8g'\	.	.	.	.
8r	8ccJ 8a'\	.	.	.	.
=4	=4	=4	=4	=4	=4
2.r	8ddL 8f'/	.	2.ryy	.	.
.	8b- 8g'/	.	.	.	.
.	8ccJ 8e'/	.	.	.	.
.	8aL 8f'/	]	.	.	.
.	8b- 8d'/	.	.	.	.
.	8aJ 8f 8c'/	.	.	.	.
!!LO:LB:g=original
=5	=5	=5	=5	=5	=5
4B- 4BB-\	4g 4f 4d/	p	2.ryy	.	.
8r	8r	.	.	.	.
*clefG2	*8va	*	*	*	*
4b-: 4B-:/	4ggg: 4fff: 4ddd: 4gg:\	.	.	.	.
*	*X8va	*	*	*	*
8r	8r	.	.	.	.
=6	=6	=6	=6	=6	=6
!LO:TX:a:i:t=1.:mod=	!LO:TX:a:i:t=1.:mod=	!	!	!	!
2.r	2.r	.	2.ryy	.	.
*clefF4	*	*	*	*	*
=7	=7	=7	=7	=7	=7
!	!LO:TX:a:i:t=loco	!LO:DY:t=pf	!	!	!
4B- 4BB-\	4g 4f 4d-X/	fp	2.ryy	.	.
8r	8r	.	.	.	.
*	*8va	*	*	*	*
4b-: 4B-:\	4ggg: 4fff: 4ddd-X: 4gg:\	.	.	.	.
*	*X8va	*	*	*	*
8ryy	8r	.	.	.	.
=8	=8	=8	=8	=8	=8
!LO:TX:a:i:t=1.:mod=	!LO:TX:a:i:t=1.:mod=	!	!	!	!
2.r	2.r	.	2.ryy	.	.
=9	=9	=9	=9	=9	=9
4C 4CC/	4g 4f 4c/	p	2.ryy	.	.
8r	8r	.	.	.	.
4c: 4C:\	4ccc: 4gg: 4ff: 4cc:\	.	.	.	.
8r	8r	.	.	.	.
=10	=10	=10	=10	=10	=10
!LO:TX:a:i:t=1.:mod=	!LO:TX:a:i:t=1.:mod=	!	!	!	!
2.r	2.r	.	2.ryy	.	.
=11	=11	=11	=11	=11	=11
!	!	!LO:DY:t=pf	!	!	!
4C 4CC/	4g 4e 4B-/	fp	2.ryy	.	.
8r	8r	.	.	.	.
4c: 4G: 4C:\	4ccc: 4gg: 4ee: 4b-:\	.	.	.	.
8r	8r	.	.	.	.
=12	=12	=12	=12	=12	=12
2.r;	2.r;	.	2.r;	.	.
!!LO:LB:g=original
=13||	=13||	=13||	=13||	=13||	=13||
!	!	!LO:DY:rj	!	!	!LO:DY:b:rj
4FF\	4f 4c 4A</	p	8f/	O	p
.	.	.	8a/	wi-	.
8r	8r	.	8g/	-dać	.
4F\	4f 4e-X 4c/	.	8f/	i	.
.	.	.	8g/	sły-	.
8r	8r	.	8a/	-chać	.
=14	=14	=14	=14	=14	=14
4BB-/	4f 4d 4B-/	.	8b-\	w o-	.
.	.	.	8cc\	-gró-	.
8r	8r	.	8dd\	-dku	.
4GG/	4g 4d 4B-/	.	8g/	sko-	.
.	.	.	8a/	-wro-	.
8r	8r	.	8b-/	-nek	.
!!LO:LB:g=original
=15	=15	=15	=15	=15	=15
4C/	4g 4e 4c/	.	8e/	Z pio-	.
.	.	.	8cc\	-sen-	.
!	!	!	!LO:MO:mod=!LO&colon;TX&colon;a&colon;i&colon;t=poco ritenuto	!	!
!	!	!	!LO:TX:a:t=poco ritenu_:dur=4qe:ext=ud:problem=tekst with extention lines	!	!
8r	8r	.	8b-\	-ką	.
!	!LO:MO:mod=!LO&colon;TX&colon;a&colon;i&colon;t=poco ritenuto	!	!	!	!
!	!LO:TX:b:t=poco ritenu_:dur=4q:ext=ud:problem=tekst with extention lines	!	!	!	!
4F\	4a 4f 4c/	<	8a\	po-	.
!	!	!	!	!	!LO:HP:b
.	.	.	8ff\	-dle-	<
8r	8r	[	16ee\	-ci	.
.	.	.	16ee\	u-	[
=16	=16	=16	=16	=16	=16
*^	*	*	*	*	*
!	!	!	!	!	!	!LO:HP:b
4.Bn/	[>4.G\	(4.dd (4.f/	>	4.dd\	-pa-	>
!	!	!	!	!	!LO:MO:mod=-dnie.	!
4c/	4G] 4C\	4cc 4e/))	]	4cc\	-dnie	]
8r;	8ryy	8r;	.	8r;	.	.
*v	*v	*	*	*	*	*
!!LO:PB:g=original
=17	=17	=17	=17	=17	=17
!	!LO:TX:b:i:t=a tempo	!	!LO:TX:a:i:t=a tempo	!LO:MO:mod=I	!
8F\L	8f/L	.	8f/	J	.
8A\	8a/	.	8a/	mo-	.
8G\J	8g/J	.	8g/	-je	.
8F\L	8f/L	.	8f/	Kwia-	.
8G\	8g/	.	8g/	-tecz-	.
8A\J	8a/J	.	8a/	-ki	.
=18	=18	=18	=18	=18	=18
4B-\	4b-\	.	8b-\	z roz-	.
.	.	.	8cc\	-pu-	.
8r	8r	.	8dd\	-kłych	.
4D\	4a 4f#X 4d 4c/	.	8a\	na-	.
.	.	.	8b-\	-sio-	.
8r	8r	.	8a\	-nek	.
!!LO:LB:g=original
=19	=19	=19	=19	=19	=19
4G\	4g 4d 4B-/	.	8g/	Jak	.
.	.	.	8a/	wscho-	.
8r	8r	.	8b-/	-dzą	.
!	!	!	!LO:MO:mod=!LO&colon;TX&colon;a&colon;i&colon;t=ritenuto	!	!
!	!	!	!LO:TX:a:t=ritenu_:dur=2es:ext=ud:problem=tekst with extention lines	!	!
4GG/	4b- 4g 4d/	.	8b-\	zie-	.
.	.	.	8cc\	-lo-	.
!	!LO:TX:b:i:t=a tempo	!	!	!	!
8r	8r	.	16dd\	-no	.
!	!	!	!LO:TX:a:i:t=a tempo	!	!
.	.	.	16dd\	i	.
=20	=20	=20	=20	=20	=20
!LO:MO:mod=!null:null	!LO:MO:mod=!null:null	!	!	!	!
!LO:N:vis=4	!LO:N:vis=4	!	!	!	!
!	!LO:S:problem=note-level slur	!	!	!	!
(4.C\	(>(4.e [>4.c 4.B-<^>/	.	4.e/	ła-	.
!	!	!	!	!LO:MO:mod=-dnie.	!
4FF\)	4f 4c] 4A</))	.	4f/	-dnie	.
8r	8cc\	.	8r	.	.
=21||	=21||	=21||	=21||	=21||	=21||
!	!	!	!	!	!LO:DY:a
4F 4C 4AA 4FF/	(16a\LL	p	4.cc\	O!	p
.	16cc\	.	.	.	.
!	!LO:TX:b:i:t=leggieriſsimo	!	!LO:TX:a:i:t=dolce	!	!
.	16ff\	.	.	.	.
.	16aa\	.	.	.	.
8F 8C 8AA 8FF/	16ccc\	.	.	.	.
.	16cc\JJ)	.	.	.	.
*rep	*rep	*	*	*	*
4F 4C 4AA 4FF/	(16a\LL	.	8cc\	mil-	.
.	16cc\	.	.	.	.
.	16ff\	.	8b-\	-sze	.
.	16aa\	.	.	.	.
8F 8C 8AA 8FF/	16ccc\	.	8a\	Kro-	.
.	16cc\JJ)	.	.	.	.
*Xrep	*Xrep	*	*	*	*
!!LO:LB:g=original
=22	=22	=22	=22	=22	=22
4E 4C 4BB- 4FF/	(16b-\LL	.	4.b-^>/	-sien-	.
.	16cc\	.	.	.	.
.	16ee\	.	.	.	.
.	16gg\	.	.	.	.
8E 8C 8BB- 8FF/	16ccc\	.	.	.	.
.	16cc\JJ)	.	.	.	.
*rep	*rep	*	*	*	*
4E 4C 4BB- 4FF/	(16b-\LL	.	4g/	-ka	.
.	16cc\	.	.	.	.
.	16ee\	.	.	.	.
.	16gg\	.	.	.	.
8E 8C 8BB- 8FF/	16ccc\	.	8cc\	i	.
.	16cc\JJ)	.	.	.	.
*Xrep	*Xrep	*	*	*	*
=23	=23	=23	=23	=23	=23
4F 4C 4AA 4FF/	(16a\LL	.	4ff^\	mi-	.
.	16cc\	.	.	.	.
.	16ff\	.	.	.	.
.	16aa\	.	.	.	.
!	!	!	!	!LO:MO:mod=-lej,	!
8F 8C 8AA 8FF/	16ccc\	.	8cc\	-lej	.
.	16cc\JJ)	.	.	.	.
*rep	*rep	*	*	*	*
4F 4C 4AA 4FF/	(16a\LL	.	8cc^\	mi-	.
.	16cc\	.	.	.	.
.	16ff\	.	8b-\	-lej	.
.	16aa\	.	.	.	.
8F 8C 8AA 8FF/	16ccc\	.	8a\	z o-	.
.	16cc\JJ)	.	.	.	.
*Xrep	*Xrep	*	*	*	*
=24	=24	=24	=24	=24	=24
4E 4C 4BB- 4FF/	(16b-\LL	.	4.b-/	-kien-	.
.	16cc\	.	.	.	.
.	16ee\	.	.	.	.
.	16gg\	.	.	.	.
8E 8C 8BB- 8FF/	16ccc\	.	.	.	.
.	16cc\JJ)	.	.	.	.
*rep	*rep	*	*	*	*
4E 4C 4BB- 4FF/	(16b-\LL	.	4g/	-ka	.
.	16cc\	.	.	.	.
.	16ee\	.	.	.	.
.	16gg\	.	.	.	.
8E 8C 8BB- 8FF/	16ccc\	.	8r	.	.
.	16cc\JJ)	.	.	.	.
*Xrep	*Xrep	*	*	*	*
=25	=25	=25	=25	=25	=25
4F 4C 4AA 4FF/	(16a\LL	.	8f/	Za-	.
.	16cc\	.	.	.	.
.	16ff\	<	8a/	-dzwo-	.
.	16aa\	.	.	.	.
8r	16ccc\	.	8g/	-ni	.
.	16ff\JJ	.	.	.	.
!LO:S:problem=note-level slur	!	!	!	!	!
(<(>4.e-X &(>4.c 4.F\	8fff\)	[	8f/	pio-	<
.	4aatt\	>	8g/	-sen-	.
.	.	]	8a/	-ka	[
.	(16qgg/LL	.	.	.	.
.	16qaa/JJ)	.	.	.	.
!!LO:LB:g=original
=26	=26	=26	=26	=26	=26
4d) 4B-\)&)	4bb-\	.	16b-\	la	.
.	.	.	16cc\	la	.
.	.	.	8dd\	la,	.
8r	8r	.	8r	.	.
4Bn 4BBn\	4dd 4g#X 4f/	.	16dd\	la	.
.	.	.	16ee\	la	.
.	.	.	4ff;\	la	.
8r;	8r;	.	.	.	.
=27	=27	=27	=27	=27	=27
4c 4C\	4cc 4a 4f/	.	8r	.	.
!	!	!	!LO:MO:mod=!LO&colon;TX&colon;a&colon;i&colon;t=poco ritenuto	!	!
!	!	!	!LO:TX:a:t=poco ritenu_:dur=5e:ext=ud:problem=tekst with extention lines	!	!
.	.	.	16a/	la	.
.	.	.	16b-/	la	.
8r	8r	.	8cc\	la	.
4r;	4r;	.	16f/	la	.
.	.	.	16g/	la	.
.	.	.	16a/	la	.
.	.	.	16r;	.	.
!	!	!	!LO:TX:a:i:t=a tempo	!	!
8r	8r	.	8c/	pio-	.
=28	=28	=28	=28	=28	=28
!	!LO:S:problem=note-level slur	!	!	!	!
(<4.C\	((4.e [>4.c 4.B-<^>/	p	4.g/	-sen-	.
!	!	!	!	!LO:MO:mod=-ka.	!
4F\)	4f 4c] 4A</))	.	4f/	-ka	.
8r	(8cc\	.	8r	.	.
!!LO:PB:g=original
=29	=29	=29	=29	=29	=29
*clefG2	*	*	*	*	*
!LO:S:problem=note-level slur	!	!	!	!	!
(<(>4.b- &(>4.e 4.c/	4.gg\	p	2.r;	.	.
4a) 4f/)&)	4ff\)	.	.	.	.
8r;	8r;	.	.	.	.
=30||	=30||	=30||	=30||	=30||	=30||
!LO:CL:ed	!	!	!	!	!
*clefF4	*	*	*	*	*
!	!	!	!LO:TX:a:i:t=2a:mod=	!	!LO:DY:b:rj
4F 4FF/	4f 4c 4A/	p	8f/	Po	p
.	.	.	8a/	Kwie-	.
!	!	!	!	!LO:MO:mod=-tnej,	!
8r	8r	.	8g/	-tnej	.
4F\	4f 4e-X 4c/	.	8f/	po	.
.	.	.	8g/	świe-	.
8r	8r	.	8a/	-tnej	.
=31	=31	=31	=31	=31	=31
4BB-/	4f 4d 4B-/	.	8b-\	z prze-	.
.	.	.	8cc\	-wo-	.
8r	8r	.	8dd\	-dnią	.
4GG/	4g 4d 4B-/	.	8g/	nie-	.
.	.	.	8a/	-dzie-	.
8r	8r	.	8b-/	-lą	.
!!LO:LB:g=original
=32	=32	=32	=32	=32	=32
*clefF4	*	*	*	*	*
4C/	4g 4e 4c 4B-/	.	8e/	Ro-	.
.	.	.	8cc\	-zro-	.
8r	8r	.	8b-\	-sną	.
!	!LO:MO:mod=!LO&colon;TX&colon;a&colon;i&colon;t=ritenuto	!	!LO:MO:mod=!LO&colon;TX&colon;a&colon;i&colon;t=ritenuto	!	!
!	!LO:TX:b:t=ritenu_:dur=9e:ext=ud:problem=tekst with extention lines	!	!LO:TX:a:t=ritenu_:dur=9e:ext=ud:problem=tekst with extention lines	!	!
4FF/	4f 4c 4A/	.	8a\	się	.
.	.	<	8ff\	w słoń-	.
8AA/	8g 8c#X 8A/	.	16ee\	-cu	.
.	.	[	16ee\	kwia-	.
=33	=33	=33	=33	=33	=33
*	*^	*	*	*	*
4D\	4.f 4.d/	4A\	>	4.dd\	-te-	.
8GG/	.	8Bn\	.	.	.	>
!	!	!	!	!	!LO:MO:mod=-czki.	!
4C\	4e 4c 4G</	8ryy	]	4cc\	-czki	]
.	.	4ryy	.	.	.	.
8r	8r	.	.	8r	.	.
*	*v	*v	*	*	*	*
=34	=34	=34	=34	=34	=34
!	!LO:MO:mod=!LO&colon;TX&colon;a&colon;i&colon;t=a tempo	!	!	!	!
!	!LO:TX:b:i:t=a tempo	!	!LO:TX:a:i:t=a tempo	!LO:MO:mod=I	!
8F\L	8f/L	p	8f/	J	.
8A\	8a/	.	8a/	w pą-	.
8G\J	8g/J	.	8g/	-czki	.
8F\L	8f/L	.	8f/	się	.
8G\	8g/	.	8g/	zmie-	.
8A\J	8a/J	.	8a/	-nią,	.
!!LO:LB:g=original
=35	=35	=35	=35	=35	=35
4B-\	4b-\	.	8b-\	Ro-	.
.	.	.	8cc\	-zwi-	.
!	!	!	!	!LO:MO:mod=-ną,	!
8r	8r	.	8dd\	-ną	.
4F#X\	4a 4d 4c^/	.	8dd\	wy-	.
.	.	.	8ee-X^\	-strze-	.
8r	8r	.	8dd\	-lą	.
=36	=36	=36	=36	=36	=36
4G\	4g 4d 4B-/	.	8g/	w czer-	.
.	.	.	8a/	-wo-	.
8r	8r	.	8b-/	-ne	.
!	!LO:MO:mod=!LO&colon;TX&colon;a&colon;i&colon;t=ritenuto	!	!LO:MO:mod=!LO&colon;TX&colon;a&colon;i&colon;t=ritenuto	!	!
!	!LO:TX:b:t=ritenu_:dur=3e:ext=ud:problem=tekst with extention lines	!	!LO:TX:a:t=ritenu_:dur=3e:ext=ud:problem=tekst with extention lines	!	!
4GG/	4b- 4g 4d/	.	8b-\	nie-	.
.	.	.	8cc\	-bie-	.
8r	8r	.	16dd\	-skie	.
.	.	.	16dd\	li-	.
=37	=37	=37	=37	=37	=37
!	!LO:MO:mod=!LO&colon;TX&colon;a&colon;i&colon;t=a tempo	!	!	!	!
!	!LO:TX:b:i:t=a tempo	!	!LO:TX:a:i:t=a tempo	!	!
!	!LO:S:problem=note-level slur	!	!	!	!
(<4.C\	(>(>4.e [>4.c 4.B-</	.	4.e/	-ste-	.
4F\)	4f 4c] 4A</))	.	4f/	-czki	.
8r	8cc\	.	8r	.	.
!!LO:LB:g=original
=38	=38	=38	=38	=38	=38
!	!LO:MO:mod=!LO&colon;TX&colon;a&colon;i&colon;t=leggiero	!	!	!	!
!	!LO:TX:b:i:t=leggier&colon;	!LO:DY:rj	!	!	!LO:DY:b:rj
4F 4C 4AA 4FF/	(16a\LL	p	4.cc\	O!	p
.	16cc\	.	.	.	.
.	16ff\	.	.	.	.
.	16aa\	.	.	.	.
8F 8C 8AA 8FF/	16ccc\	.	.	.	.
.	16cc\JJ)	.	.	.	.
*rep	*rep	*	*	*	*
4F 4C 4AA 4FF/	(16a\LL	.	8cc\	mil-	.
.	16cc\	.	.	.	.
.	16ff\	.	8b-\	-sze	.
.	16aa\	.	.	.	.
8F 8C 8AA 8FF/	16ccc\	.	8a\	kro-	.
.	16cc\JJ)	.	.	.	.
*Xrep	*Xrep	*	*	*	*
=39	=39	=39	=39	=39	=39
4E 4C 4BB- 4FF/	(16b-\LL	.	4.b-\	-sien-	.
.	16cc\	.	.	.	.
.	16ee\	.	.	.	.
.	16gg\	.	.	.	.
8E 8C 8BB- 8FF/	16ccc\	.	.	.	.
.	16cc\JJ)	.	.	.	.
*rep	*rep	*	*	*	*
!	!	!	!	!LO:MO:mod=-ka,	!
4E 4C 4BB- 4FF/	(16b-\LL	.	4g/	-ka	.
.	16cc\	.	.	.	.
.	16ee\	.	.	.	.
.	16gg\	.	.	.	.
!	!	!	!	!LO:MO:mod=I	!
8E 8C 8BB- 8FF/	16ccc\	.	8cc\	J	.
.	16cc\JJ)	.	.	.	.
*Xrep	*Xrep	*	*	*	*
=40	=40	=40	=40	=40	=40
4F 4C 4AA 4FF/	(16a\LL	.	4ff\	mi-	.
.	16cc\	.	.	.	.
.	16ff\	.	.	.	.
.	16aa\	.	.	.	.
!	!	!	!	!LO:MO:mod=-lej,	!
8F 8C 8AA 8FF/	16ccc\	.	8cc\	-lej	.
.	16cc\JJ)	.	.	.	.
*rep	*rep	*	*	*	*
4F 4C 4AA 4FF/	(16a\LL	.	8cc\	mi-	.
.	16cc\	.	.	.	.
.	16ff\	.	8b-\	-lej	.
.	16aa\	.	.	.	.
8F 8C 8AA 8FF/	16ccc\	.	8a\	z o-	.
.	16cc\JJ)	.	.	.	.
*Xrep	*Xrep	*	*	*	*
=41	=41	=41	=41	=41	=41
4E 4C 4BB- 4FF/	(16b-\LL	.	4.b-/	-kien-	.
.	16cc\	.	.	.	.
.	16ee\	.	.	.	.
.	16gg\	.	.	.	.
8E 8C 8BB- 8FF/	16ccc\	.	.	.	.
.	16cc\JJ)	.	.	.	.
*rep	*rep	*	*	*	*
4E 4C 4BB- 4FF/	(16b-\LL	.	4g/	-ka	.
.	16cc\	.	.	.	.
.	16ee\	.	.	.	.
.	16gg\	.	.	.	.
8E 8C 8BB- 8FF/	16ccc\	.	8r	.	.
.	16cc\JJ)	.	.	.	.
*Xrep	*Xrep	*	*	*	*
!!LO:PB:g=original
=42	=42	=42	=42	=42	=42
4F 4C 4AA 4FF/	(16a\LL	.	8f/	Za-	.
.	16cc\	<	.	.	<
.	16ff\	.	8a/	-dzwo-	.
.	16aa\	.	.	.	.
8r	16ccc\	.	8g/	-ni	.
.	16ff\JJ	.	.	.	.
!LO:S:problem=note-level slur	!	!	!	!	!
(<(>4.e-X &(>4.c 4.F\	8fff\)	[	8f/	pio-	.
.	4aa^<tt\	.	8g/	-sen-	.
.	.	.	8a/	-ka	[
.	(16qgg/LL	.	.	.	.
.	16qaa/JJ)	.	.	.	.
=43	=43	=43	=43	=43	=43
!	!	!	!	!	!LO:DY:a
4d) 4B-\)&)	4bb-\	.	16b-\	la	f
.	.	.	16cc\	la	.
.	.	.	8dd\	la	.
8r	8r	.	8r	.	.
!	!	!	!	!	!LO:DY:a
4Bn 4BBn\	4dd 4g#X 4f^/	p	16dd\	la	p
.	.	.	16ee\	la	.
.	.	.	4ff;\	la	.
8r;	8r;	.	.	.	.
=44	=44	=44	=44	=44	=44
4c 4C\	4cc 4a 4f/	.	8r	.	.
!	!	!	!	!	!LO:DY:a
.	.	.	16a\	la	mf
.	.	.	16b-\	la	.
8r	8r	.	8cc\	la	.
4r;	4r;	.	16f/	la	.
.	.	.	16g/	la	.
.	.	.	16a/	la	.
.	.	.	16r;	.	.
8r	8r	.	8c/	pio-	.
!!LO:LB:g=original
=45	=45	=45	=45	=45	=45
!	!LO:S:problem=note-level slur	!	!	!	!
(<4.C\	(>(>4.e [>4.c 4.B-</	.	4.g^>/	-sen-	.
4F\)	4f 4c] 4A</))	.	4f/	-ka.	.
8r	(8cc\	.	8r	.	.
*clefG2	*	*	*	*	*
=46	=46	=46	=46	=46	=46
4.b- 4.e 4.c/	(4.gg^<\)	pp	2.r;	.	.
4a 4f/	4ff\)	.	.	.	.
8r;	8r;	.	.	.	.
=47||	=47||	=47||	=47||	=47||	=47||
!LO:CL:ed	!	!	!LO:TX:a:i:t=3a:mod=	!	!LO:DY:b:rj
*clefF4	*	*	*	*	*
8F\L	8f/L	pp	8f/	Po	pp
8A\	8a/	.	8a/	ci-	.
8G\J	8g/J	.	8g/	-chu	.
8F\L	8f/L	.	8f/	coś	.
8G\	8g/	.	8g/	sze-	.
8A\J	8a/J	.	8a/	-pczą	.
=48	=48	=48	=48	=48	=48
8B-\L	8b-\L	.	8b-\	i	.
8c\	8cc\	.	8cc\	mło-	.
8d\J	8dd\J	.	8dd\	-dzi	.
4G\	4g/	.	8g/	i	.
.	.	.	8a/	sta-	.
8r	8r	.	8b-/	-rzy	.
!!LO:LB:g=original
=49	=49	=49	=49	=49	=49
*clefF4	*	*	*	*	*
4C/	4g 4e 4B-/	.	8e/	o	.
.	.	.	8cc\	ła-	.
8r	8r	.	8b-\	-two	.
!	!LO:MO:mod=!LO&colon;TX&colon;a&colon;i&colon;t=ritenuto	!	!LO:MO:mod=!LO&colon;TX&colon;a&colon;i&colon;t=ritenuto	!	!
!	!LO:TX:b:t=ritenu_:dur=9e:ext=ud:problem=tekst with extention lines	!	!LO:TX:t=ritenu_:dur=9e:ext=ud:problem=tekst with extention lines	!	!LO:HP:b
4FF/	4f 4c 4A/	.	8a\	od-	<
.	.	.	8ff\	-ga-	.
8AA\	8g 8c#X 8A</	.	16ee\	-dnąć	[
.	.	.	16ee\	z ich	.
=50	=50	=50	=50	=50	=50
*^	*	*	*	*	*
!	!	!	!	!	!	!LO:HP:b
(4A/	4D\	(>4.f 4.d/	.	4.dd\	o-	>
8Bn/	8GG\	.	.	.	.	.
4G/)	4C\	4e 4c/)	.	4cc\	-czu	]
8r	8ryy	8r	.	8r	.	.
*v	*v	*	*	*	*	*
=51	=51	=51	=51	=51	=51
!	!LO:MO:mod=!LO&colon;TX&colon;a&colon;i&colon;t=a tempo	!	!	!	!
!	!LO:TX:b:i:t=a tempo	!	!LO:TX:a:i:t=a tempo	!	!LO:DY:b:rj
4FF/	4f 4c 4A/	.	8f/	Coś	p
.	.	.	8a/	o	.
!	!	!	!	!LO:MO:mod=mnie,	!
8r	8r	.	8g/	mnie	.
4F\	4f 4e-X 4c/	.	8f/	o	.
.	.	.	8g/	kwia-	.
8r;	8r;	.	16a/	-tkach	.
.	.	.	16r;	.	.
!!LO:LB:g=original
=52	=52	=52	=52	=52	=52
8r	8r	.	4b-\	co?	.
8BB-/	8f 8d 8B-/	p	.	.	.
8r;	8r;	.	8r;	.	.
!	!	!	!	!LO:MO:mod=Ja-	!
4r	4r	.	8b-\	ja-	.
.	.	.	8cc\	-kie	.
8r	8r	.	8dd\	do	.
=53	=53	=53	=53	=53	=53
4C\	4e 4B-< 4G</	.	4dd\	twa-	.
8r;	8r;	.	16e/	-rzy?	.
.	.	.	16r;	.	.
!	!	!	!	!LO:MO:mod=Co?	!
4r	8r	.	4cc\	co	.
.	8cc 8c/	p	.	.	.
8r	8r;	.	8r;	.	.
=54	=54	=54	=54	=54	=54
4C\	4g 4e 4c 4B-</	.	8cc\	Ja-	.
!	!LO:MO:mod=!LO&colon;TX&colon;a&colon;i&colon;t=poco ritenuto	!	!LO:MO:mod=!LO&colon;TX&colon;a&colon;i&colon;t=poco ritenuto	!	!
!	!LO:TX:b:t=poco ritenu_:dur=11e:ext=ud:problem=tekst with extention lines	!	!LO:TX:t=poco ritenu_:dur=11e:ext=ud:problem=tekst with extention lines	!	!
.	.	.	8g/	-kie	.
8r	8r	.	8b-/	mam	.
4F\	4f 4c 4A</	.	8a/	u-	.
.	.	.	8g/	-pleść	.
8r	8r	.	8f/	w war-	.
!!LO:PB:g=original
=55	=55	=55	=55	=55	=55
!	!LO:S:problem=note-level slur	!	!	!	!
4D\	(>4.f (>4.Bn< [4.G</	.	4.g/	-ko-	.
8GG\	.	.	.	.	.
!	!	!	!	!LO:MO:mod=-czu?	!
8C\	4e 4c<) 4G</])	.	4c/	-czu	.
4r	.	.	.	.	.
.	8r;	.	8r;	.	.
=56||	=56||	=56||	=56||	=56||	=56||
!	!LO:MO:null:mod=!LO&colon;TX&colon;a&colon;i&colon;t=a tempo	!	!	!	!
!	!	!	!LO:TX:a:i:t=a tempo	!	!LO:DY:b:rj
4F 4C 4AA 4FF/	(16a\LL	p	4.cc\	O!	p
!	!LO:TX:b:i:t=a tempo:mod=	!	!	!	!
.	16cc\	.	.	.	.
.	16ff\	.	.	.	.
.	16aa\	.	.	.	.
8F 8C 8AA 8FF/	16ccc\	.	.	.	.
.	16cc\JJ)	.	.	.	.
*rep	*rep	*	*	*	*
4F 4C 4AA 4FF/	(16a\LL	.	8cc\	mil-	.
.	16cc\	.	.	.	.
.	16ff\	.	8b-\	-sze	.
.	16aa\	.	.	.	.
8F 8C 8AA 8FF/	16ccc\	.	8a\	Kro-	.
.	16cc\JJ)	.	.	.	.
*Xrep	*Xrep	*	*	*	*
=57	=57	=57	=57	=57	=57
4E 4C 4BB- 4FF/	(16b-\LL	.	4.b-\	-sien-	.
.	16cc\	.	.	.	.
.	16ee\	.	.	.	.
.	16gg\	.	.	.	.
8E 8C 8BB- 8FF/	16ccc\	.	.	.	.
.	16cc\JJ)	.	.	.	.
*rep	*rep	*	*	*	*
!	!	!	!	!LO:MO:mod=-ka,	!
4E 4C 4BB- 4FF/	(16b-\LL	.	4g\	-ka	.
.	16cc\	.	.	.	.
.	16ee\	.	.	.	.
.	16gg\	.	.	.	.
!	!	!	!	!LO:MO:mod=I	!
8E 8C 8BB- 8FF/	16ccc\	.	8cc\	J	.
.	16cc\JJ)	.	.	.	.
*Xrep	*Xrep	*	*	*	*
=58	=58	=58	=58	=58	=58
4F 4C 4AA 4FF/	(16a\LL	.	4ff\	mi-	.
.	16cc\	.	.	.	.
.	16ff\	.	.	.	.
.	16aa\	.	.	.	.
!	!	!	!	!LO:MO:mod=-lej,	!
8F 8C 8AA 8FF/	16ccc\	.	8cc\	-lej	.
.	16cc\JJ)	.	.	.	.
*rep	*rep	*	*	*	*
4F 4C 4AA 4FF/	(16a\LL	.	8cc\	mi-	.
.	16cc\	.	.	.	.
.	16ff\	.	8b-\	-lej	.
.	16aa\	.	.	.	.
8F 8C 8AA 8FF/	16ccc\	.	8a\	z o-	.
.	16cc\JJ)	.	.	.	.
*Xrep	*Xrep	*	*	*	*
!!LO:LB:g=original
=59	=59	=59	=59	=59	=59
4E 4C 4BB- 4FF/	(16b-\LL	.	4.b-/	-kien-	.
.	16cc\	.	.	.	.
.	16ee\	.	.	.	.
.	16gg\	.	.	.	.
8E 8C 8BB- 8FF/	16ccc\	.	.	.	.
.	16cc\JJ)	.	.	.	.
*rep	*rep	*	*	*	*
4E 4C 4BB- 4FF/	(16b-\LL	.	4g/	-ka	.
.	16cc\	.	.	.	.
.	16ee\	.	.	.	.
.	16gg\	.	.	.	.
8E 8C 8BB- 8FF/	16ccc\	.	8r	.	.
.	16cc\JJ)	.	.	.	.
*Xrep	*Xrep	*	*	*	*
=60	=60	=60	=60	=60	=60
4F 4C 4AA 4FF/	(16a\LL	.	8f/	Za-	.
.	16cc\	.	.	.	.
.	16ff\	<	8a/	-dzwo-	<
.	16aa\	.	.	.	.
8r	16ccc\	.	8g/	-ni	.
.	16aa\JJ	.	.	.	.
(<[4.F 4.FF/	16ff\LL	.	8f/	pio-	.
.	16cc\	.	.	.	.
.	16a\	.	8g/	-sen-	.
.	16g\	.	.	.	.
.	16f\	.	8a/	-ka	[
.	16e-X\JJ)	[	.	.	.
=61	=61	=61	=61	=61	=61
*^	*	*	*	*	*
!	!	!	!	!	!	!LO:DY:a
4F/]	4BB-\)	4d/	f	16b-\	la	f
.	.	.	.	16cc\	la	.
.	.	.	.	8dd\	la	.
8r	8ryy	8r	.	8r	.	.
4Bn\	4BBn\	4dd 4g#X 4f^/	.	16dd\	la	.
.	.	.	.	16ee\	la	.
.	.	.	.	4ff;\	la	.
8r;	8ryy	8r;	.	.	.	.
*v	*v	*	*	*	*	*
!!LO:LB:g=original
=62	=62	=62	=62	=62	=62
4c 4C\	4cc 4a 4f/	.	8r	.	.
!	!	!	!LO:TX:a:i:t=ritenu:mod=rit	!	!
.	.	.	16a\	la	.
.	.	.	16b-\	la	.
8r	8r	.	8cc\	la	.
4r;	4r;	.	16f/	la	.
.	.	.	16g/	la	.
.	.	.	16a/	la	.
.	.	.	16r;	.	.
!	!	!	!LO:TX:a:i:t=a tempo	!	!
8r	8r	.	8c/	pio-	.
=63	=63	=63	=63	=63	=63
!	!LO:S:problem=note-level slur	!	!	!	!
(<4.C\	(>(>4.e [>4.c 4.B-</	.	4.g/	-sen-	.
!	!	!	!	!LO:MO:mod=-ka.	!
4F\)	4f 4c] 4A</))	.	4f/	-ka	.
8r	8cc\	.	8r	.	.
=64	=64	=64	=64	=64	=64
*clefG2	*	*	*	*	*
!LO:S:problem=note-level slur	!	!	!	!	!
(<(>4.b- &(>4.e 4.c/	(4.gg^<\	pp	2.r;	.	.
4a) 4f/)&)	4ff\)	.	.	.	.
8r;	8r;	.	.	.	.
!!LO:LB:g=original
=65||	=65||	=65||	=65||	=65||	=65||
*clefF4	*	*	*	*	*
!	!	!	!LO:TX:a:t=4a:mod=	!	!
4F\	4f 4c 4A/	.	8f/	Gość	.
.	.	.	8a/	je-	.
!	!	!	!	!LO:MO:mod=-dzie!	!
8r	8r	.	8f/	-dzie	.
4r;	4r;	.	4r;	.	.
8r	8r	.	8r	.	.
=66	=66	=66	=66	=66	=66
!	!	!	!LO:TX:a:i:t=animato	!LO:MO:mod=Już	!
4C/	4g 4e 4c/	.	8cc\	już	.
.	.	.	8ee\	w bra-	.
!	!	!	!	!LO:MO:mod=-mie!	!
8r	8r	.	8cc\	-mie	.
4r;	4r;	.	4r;	.	.
8r	8r	.	8r	.	.
=67	=67	=67	=67	=67	=67
*	*tremolo	*	*	*	*
!	!LO:TX:a:i:t=trem	!	!	!LO:MO:mod=Rży	!LO:DY:a
4.BB- 4.BBB-/	32dd 32b- 32g 32d/LLL	f	4.dd\	rży	f
.	32dd 32b- 32g 32d/	.	.	.	.
.	32dd 32b- 32g 32d/	.	.	.	.
.	32dd 32b- 32g 32d/	.	.	.	.
.	32dd 32b- 32g 32d/	.	.	.	.
.	32dd 32b- 32g 32d/	.	.	.	.
.	32dd 32b- 32g 32d/	.	.	.	.
.	32dd 32b- 32g 32d/	.	.	.	.
.	32dd 32b- 32g 32d/	.	.	.	.
.	32dd 32b- 32g 32d/	.	.	.	.
.	32dd 32b- 32g 32d/	.	.	.	.
.	32dd 32b- 32g 32d/JJJ	.	.	.	.
*	*Xtremolo	*	*	*	*
4C 4CC/	4b- 4g 4e/	.	8b-/	ko-	.
.	.	.	.	.	>
.	.	.	8a/	-nik	.
8r	8r	.	8g/	z po-	]
=68	=68	=68	=68	=68	=68
4F 4FF/	4a 4f 4c/	p	4.a^>/	-dwór-	.
8r	8r	.	.	.	.
!	!	!	!	!LO:MO:mod=ka.	!
4r	4r	.	4f/	-ka	.
8r	8r	.	8r	.	.
!!LO:PB:g=original
=69	=69	=69	=69	=69	=69
!	!	!	!	!LO:MO:mod=Mój	!
2.r	4r	.	8a\	mój	.
.	.	.	8b-^\	Bo-	.
.	8r	.	8a\	-że!	.
.	4g 4e 4c#X^>/	.	4r	.	.
.	8r	.	8r	.	.
=70	=70	=70	=70	=70	=70
!	!	!	!	!	!LO:DY:b
4r	4r	.	4dd\	ach!	mf
!	!	!	!LO:MO:mod=!LO&colon;TX&colon;a&colon;i&colon;t=accelerando	!	!
!	!	!	!LO:TX:a:t=acceleran_:dur=5q:ext=ud:problem=tekst with extention lines	!	!
8r	8r	.	8r	.	.
4A 4D\	4dd 4a 4f 4d/	sf	4r	.	.
8r	8r	.	8r	.	.
=71	=71	=71	=71	=71	=71
!	!	!	!	!	!LO:DY:b
4r	4r	.	4.ff\	ach!	f
8r	8r	.	.	.	.
4d 4A 4F 4D\	4ddd 4aa 4ff 4dd\	sf	4r	.	.
8r	8r	.	8r	.	.
=72	=72	=72	=72	=72	=72
4D 4DD\	4d 4A< 4F</	.	4r;	.	.
8r;	8r;	.	8r	.	.
!	!LO:TX:b:i:t=a tempo	!	!LO:TX:a:i:t=a tempo	!LO:MO:mod=Co	!LO:HP:b
4r	4r	.	8ff\	co	<
.	.	.	8ee\	go	.
8r	8r	.	8dd\	przy-	[
!!LO:LB:g=original
=73	=73	=73	=73	=73	=73
(<2.GG\	2.f 2.Bn< 2.G</	>	2.dd\	-wio-	> ]
=74	=74	=74	=74	=74	=74
4.C;<\)	4.e 4.c< 4.G<;/	]	4.cc;\	-dło?	.
4r;	4r;	.	4r;	.	.
8r	8r	.	8r	.	.
=75	=75	=75	=75	=75	=75
!	!	!	!	!LO:MO:mod=I	!
4F\	4f 4c 4A/	p	8f/	J	.
.	.	.	8a/	wo-	.
8r	8r	.	8g/	-ła	.
(4.A\	(<[4.f (>4.e-X 4.c^;/	.	8f/	i	.
.	.	.	8g/	py-	.
.	.	.	16f/	-ta?	.
.	.	.	16r;	.	.
=76	=76	=76	=76	=76	=76
!	!	!	!	!LO:MO:mod=A	!
4B-\)	4f] 4d/))	.	8b-\	a	.
.	.	.	8ee^\	pań-	.
!	!	!	!	!LO:MO:mod=-stwo,	!
8r;	8r;	.	16dd\	-stwo	.
.	.	.	16r;	.	.
!	!LO:S:problem=note-level slur	!	!	!	!
(<4.F#X\	(>[4.d (>4.c< 4.A<;/	.	8a\	a	.
.	.	.	8qcc/	.	.
.	.	.	8b-^<;\	cór-	.
.	.	.	16a\	-ka?	.
.	.	.	16r;	.	.
!!LO:LB:g=original
=77	=77	=77	=77	=77	=77
!	!	!	!	!LO:MO:mod=I	!
4G\)	4d] 4B-<) 4G</)	.	8g/	J	.
.	.	.	8a/	cu-	.
8r	8r	.	8b-/	-gle	.
!	!	!	!LO:MO:mod=!LO&colon;TX&colon;a&colon;i&colon;t=poco ritenuto	!	!
!	!	!	!LO:TX:t=poco ritenu_:dur=4e:ext=ud:problem=tekst with extention lines	!	!
4BB-/	4g 4d 4B-/	.	8b-\	za-	.
.	.	.	8cc\	-rzu-	.
8r	8r	.	16dd\	-ca	.
.	.	.	16dd\	na	.
=78	=78	=78	=78	=78	=78
!	!LO:S:problem=note-level slur	!	!LO:TX:a:i:t=a tempo	!	!
!	!LO:MO:null:mod=!LO&colon;TX&colon;a&colon;i&colon;t=a tempo	!	!	!	!
!	!null	!	!	!	!
(<4.C\	(>(>4.e [<4.c 4.B-</	.	4.e/	sio-	.
!	!	!	!	!LO:MO:mod=-dło.	!
4FF\)	4f 4c] 4A</))	.	4f/	-dło	.
8r	8cc\	.	8r	.	.
=79||	=79||	=79||	=79||	=79||	=79||
4F 4C 4AA 4FF/	(16a\LL	p	4.cc\	O!	p
.	16cc\	.	.	.	.
!	!LO:TX:b:i:t=leggieris&colon;	!	!	!	!
.	16ff\	.	.	.	.
.	16aa\	.	.	.	.
8F 8C 8AA 8FF/	16ccc\	.	.	.	.
.	16cc\JJ)	.	.	.	.
*rep	*rep	*	*	*	*
4F 4C 4AA 4FF/	(16a\LL	.	8cc\	mil-	.
.	16cc\	.	.	.	.
.	16ff\	.	8b-\	-sze	.
.	16aa\	.	.	.	.
8F 8C 8AA 8FF/	16ccc\	.	8a\	Kro-	.
.	16cc\JJ)	.	.	.	.
*Xrep	*Xrep	*	*	*	*
!!LO:LB:g=original
=80	=80	=80	=80	=80	=80
4E 4C 4BB- 4FF/	(16b-\LL	.	4.b-\	-sien-	.
.	16cc\	.	.	.	.
.	16ee\	.	.	.	.
.	16gg\	.	.	.	.
8E 8C 8BB- 8FF/	16ccc\	.	.	.	.
.	16cc\JJ)	.	.	.	.
*rep	*rep	*	*	*	*
!	!	!	!	!LO:MO:mod=-ka.	!
4E 4C 4BB- 4FF/	(16b-\LL	.	4g\	-ka	.
.	16cc\	.	.	.	.
.	16ee\	.	.	.	.
.	16gg\	.	.	.	.
!	!	!	!	!LO:MO:mod=I	!
8E 8C 8BB- 8FF/	16ccc\	.	8cc\	J	.
.	16cc\JJ)	.	.	.	.
*Xrep	*Xrep	*	*	*	*
=81	=81	=81	=81	=81	=81
4F 4C 4AA 4FF/	(16a\LL	.	4ff\	mi-	.
.	16cc\	.	.	.	.
.	16ff\	.	.	.	.
.	16aa\	.	.	.	.
!	!	!	!	!LO:MO:mod=-lej,	!
8F 8C 8AA 8FF/	16ccc\	.	8cc\	-lej	.
.	16cc\JJ)	.	.	.	.
*rep	*rep	*	*	*	*
4F 4C 4AA 4FF/	(16a\LL	.	8cc\	mi-	.
.	16cc\	.	.	.	.
.	16ff\	.	8b-\	-lej	.
.	16aa\	.	.	.	.
8F 8C 8AA 8FF/	16ccc\	.	8a\	z o-	.
.	16cc\JJ)	.	.	.	.
*Xrep	*Xrep	*	*	*	*
=82	=82	=82	=82	=82	=82
4E 4C 4BB- 4FF/	(16b-\LL	.	4.b-\	-kien-	.
.	16cc\	.	.	.	.
.	16ee\	.	.	.	.
.	16gg\	.	.	.	.
8E 8C 8BB- 8FF/	16ccc\	.	.	.	.
.	16cc\JJ)	.	.	.	.
*rep	*rep	*	*	*	*
4E 4C 4BB- 4FF/	(16b-\LL	.	4g/	-ka	.
.	16cc\	.	.	.	.
.	16ee\	.	.	.	.
.	16gg\	.	.	.	.
8E 8C 8BB- 8FF/	16ccc\	.	8r	.	.
.	16cc\JJ)	.	.	.	.
*Xrep	*Xrep	*	*	*	*
=83	=83	=83	=83	=83	=83
4F 4C 4AA 4FF/	(16a\LL	.	8f/	Za-	.
.	16cc\	<	.	.	.
.	16ff\	.	8a/	-dzwo-	.
.	16aa\	.	.	.	.
8r	16ccc\	.	8g/	-ni	.
.	16ff\JJ)	.	.	.	.
!LO:S:problem=note-level slur	!	!	!	!	!
(<(>4.e-X (>4.c 4.F^<\	8fff^<\	[	8f/	pio-	.
.	4aa^<tt\	.	8g/	-sen-	.
.	.	.	8a/	-ka	.
.	(16qqgg/LL	.	.	.	.
.	16qqaa/JJ)	.	.	.	.
!!LO:PB:g=original
=84	=84	=84	=84	=84	=84
!	!	!	!	!	!LO:DY:a
4d) 4B-\))	4bb-\	.	16b-\	La	f
.	.	.	16cc\	la	.
.	.	.	8dd\	la	.
8r	8r	.	8r	.	.
4Bn 4BBn\	4dd 4g#X 4f/	.	16dd\	la	.
.	.	.	16een\	la	.
.	.	.	4ff;\	la	.
8r;	8r;	.	.	.	.
=85	=85	=85	=85	=85	=85
8c 8C\	8cc 8a 8f/	.	8r	.	.
8r	16aa'\LL	.	16a/	la	.
.	16bb-'\J	.	16b-/	la	.
8r	8ccc'\J	.	8cc\	la	.
4r;	16ff'\LL	.	16f/	la	.
.	16gg'\	.	16g/	la	.
.	16aa\JJ	.	16a/	la	.
.	16r;	.	16r;	.	.
8r	8r	.	8c/	pio-	.
=86	=86	=86	=86	=86	=86
!	!LO:S:problem=note-level slur	!	!	!	!
(<4.C\	(>(>4.e [>4.c 4.B-</	.	4.g/	-sen-	.
!	!	!	!	!LO:MO:mod=-ka.	!
4F\)	4f 4c] 4A</))	.	4f/	-ka	.
8r	8cc\	.	8r	.	.
*clefG2	*	*	*	*	*
!!LO:LB:g=original
=87	=87	=87	=87	=87	=87
(<(>4.b- (>4.e 4.c/	(4.gg^<\	pp	2.r;	.	.
4a 4f/)))	4ff\)	.	.	.	.
8r;	8r;	.	.	.	.
*clefF4	*	*	*	*	*
=88||	=88||	=88||	=88||	=88||	=88||
*k[b-e-]	*k[b-e-]	*	*k[b-e-]	*	*
*M2/4	*M2/4	*	*M2/4	*	*
!	!LO:MO:null:mod=!LO&colon;TX&colon;a&colon;i&colon;t=Allegretto marziale	!	!	!	!
!	!	!	!LO:TX:a:i:t=Allegretto marziale	!	!
4r	8ffL 8f\	p	2rcc	.	.
.	16ffL 16f\	.	.	.	.
.	16ffJJ 16f\	.	.	.	.
*	*rep	*	*	*	*
8r	8ffL 8f\	.	.	.	.
16ALL 16F'\	16ffL 16f\	.	.	.	.
16B-JJ 16G'\	16ffJJ 16f\	.	.	.	.
*	*Xrep	*	*	*	*
=89	=89	=89	=89	=89	=89
8cL 8A'\	8ffL 8f\	<	4r	.	.
*	*8va	*	*	*	*
8d 8B-'\	32fff\LL	.	.	.	.
.	32ff\	.	.	.	.
.	32fff\	.	.	.	.
.	32ff\JJJ	.	.	.	.
8e- 8c'\	8fff\L	.	8r	.	.
8cJ 8F'\	32fff\LL	.	8f/	Od	mf
.	32ff\	.	.	.	.
.	32fff\	[	.	.	.
.	32ff\JJJ	.	.	.	.
=90	=90	=90	=90	=90	=90
8B-L 8F 8D 8BB-'\	8bb-\L	mf	(8b-\L	brzę-	.
16B-L 16F 16D 16BB-'\	32fff\LL	.	16dd\L	.	.
.	32ff\	.	.	.	.
16B-JJ 16F 16D 16BB-'\	32fff\	.	16b-\JJ)	.	.
.	32ff\JJJ	.	.	.	.
!	!	!	!	!LO:MO:mod=-ku,	!
8B-L 8F 8D 8BB-\	8fff\L	.	8f/	-ku	.
8AJ 8F 8E- 8BB-\	32fff\LL	.	8f/	od	.
.	32ff\	.	.	.	.
.	32fff\	.	.	.	.
.	32ff\JJJ	.	.	.	.
!!LO:LB:g=original
=91	=91	=91	=91	=91	=91
*rep	*	*	*	*	*
8B-L 8F 8D 8BB-'\	8fff\	.	(8b-\L	dźwię-	.
!	!LO:TX:t=P:mixed beam:problem	!	!	!	!
16B-L 16F 16D 16BB-'\	32fff\LLL	.	16dd\L	.	.
.	32ff/	.	.	.	.
16B-JJ 16F 16D 16BB-'\	32fff\	.	16b-\JJ)	.	.
.	32ff/JJJ	.	.	.	.
8B-L 8F 8D 8BB-\	8fff\	.	8f/	-ku	.
!	!LO:TX:t=P:mixed beam:problem	!	!	!	!
8AJ 8F 8E- 8BB-\	32fff\LLL	.	8f/	o-	.
.	32ff/	.	.	.	.
.	32fff\	.	.	.	.
.	32ff/JJJ	.	.	.	.
*Xrep	*	*	*	*	*
=92	=92	=92	=92	=92	=92
16B-LL 16F 16D 16BB-\	32ddd\LLL	.	4dd\	-stro-	.
.	32ff\	.	.	.	.
16B-J 16F 16D 16BB-\	32ddd\	.	.	.	.
.	32ff\JJJ	.	.	.	.
8B-J 8F 8D 8BB-\	8ddd\	.	.	.	.
*	*X8va	*	*	*	*
!	!LO:TX:a:i:t=loco	!	!	!	!
16GLL 16En 16C\	32ccc\LLL	.	8cc\	-gi	.
.	32cc\	.	.	.	.
16GJ 16E 16C\	32ccc\	.	.	.	.
.	32cc\JJJ	.	.	.	.
8GJ 8E 8C\	32bb-\LLL	.	8b-\	sza-	.
.	32cc\	.	.	.	.
.	32bb-\	.	.	.	.
.	32cc\JJJ	.	.	.	.
=93	=93	=93	=93	=93	=93
8AL 8F\	32aa\LLL	.	(16a\LL	-bel-	.
.	32cc\	.	.	.	.
.	32ccc\	.	16cc\)	.	.
.	32cc\JJJ	.	.	.	.
8B-J 8En 8C\	32gg\LLL	.	(16g\	.	.
.	32cc\	.	.	.	.
.	32ccc\	.	16cc\JJ)	.	.
.	32cc\JJJ	.	.	.	.
8A 8F\	8ff\	.	8f/	-ki	.
8r	8r	.	8f/	aż	.
=94	=94	=94	=94	=94	=94
*	*8va	*	*	*	*
8B-L 8F 8D 8BB-\	8fff\L	.	(8b-\L	brzę-	.
16B-L 16F 16D 16BB-\	32fff\LL	.	16dd\L	.	.
.	32ff\	.	.	.	.
16B-JJ 16F 16D 16BB-\	32fff\	.	16b-\JJ)	.	.
.	32ff\JJJ	.	.	.	.
*	*rep	*	*	*	*
!	!	!	!	!LO:MO:mod=-czą,	!
8B-L 8F 8D 8BB-\	8fff\L	.	8f/	-czą	.
8AJ 8F 8E- 8BB-\	32fff\LL	.	8f/	aż	.
.	32ff\	.	.	.	.
.	32fff\	.	.	.	.
.	32ff\JJJ	.	.	.	.
*	*Xrep	*	*	*	*
!!LO:LB:g=original
=95	=95	=95	=95	=95	=95
*rep	*	*	*	*	*
8B-L 8F 8D 8BB-'\	8fff\L	.	(8b-\L	dźwię-	.
16B-L 16F 16D 16BB-'\	32fff\LL	.	16dd\L	.	.
.	32ff\	.	.	.	.
16B-JJ 16F 16D 16BB-'\	32fff\	.	16b-\JJ)	.	.
.	32ff\JJJ	.	.	.	.
!	!	!	!	!LO:MO:mod=-czą,	!
8B-L 8F 8D 8BB-\	8fff\L	.	8f/	-czą	.
8AJ 8F 8E- 8BB-\	32fff\LL	<	8f/	aż	.
.	32ff\	.	.	.	.
.	32fff\	.	.	.	.
.	32ff\JJJ	[	.	.	.
*Xrep	*	*	*	*	*
=96	=96	=96	=96	=96	=96
!	!	!	!	!	!LO:DY:a
4B- 4F 4D 4BB-\	32fff\LLL	f	4ff\	dźwię-	f
.	32ff\	.	.	.	.
.	32fff\	.	.	.	.
.	32ff\JJJ	.	.	.	.
.	32fff\LLL	.	.	.	.
.	32ff\	.	.	.	.
.	32fff\	.	.	.	.
.	32ff\JJJ	.	.	.	.
8B-L 8F 8D 8BB-\	32ddd\LLL	.	8dd\	-czą	.
.	32ff\	.	.	.	.
.	32ddd\	.	.	.	.
.	32ff\JJJ	.	.	.	.
8B-J 8F 8D\	32bb-\LLL	.	8b-\	po-	.
.	32ff\	.	.	.	.
.	32bb-\	.	.	.	.
.	32ff\JJJ	.	.	.	.
=97	=97	=97	=97	=97	=97
8c 8A 8F\	8ccc\	.	4cc\	-ko-	.
*	*X8va	*	*	*	*
!	!LO:TX:a:i:t=loco	!	!	!	!
(8FF/L	(>8aL [>8f (<8e-/	.	.	.	.
!	!	!	!	!LO:MO:mod=-je,	!
8BB-/J)	8b-J) 8f] 8d/)	.	8b-\	-je	.
8r	8r	.	8dd\	aż	.
=98	=98	=98	=98	=98	=98
16ALL 16D'\	16ddLL 16f#X'/	p	4dd\	ska-	.
16AJ 16D'\	16ddJ 16f#'/	.	.	.	.
8AJ 8D'\	8ddJ 8f#'/	.	.	.	.
*rep	*	*	*	*	*
16ALL 16D'\	16ddLL 16f#'/	.	8f#X/	-cze	.
16AJ 16D'\	16ddJ 16f#'/	.	.	.	.
8AJ 8D'\	8cc#XJ 8g 8en'^/	.	8a/	ser-	.
*Xrep	*	*	*	*	*
!!LO:PB:g=original
=99	=99	=99	=99	=99	=99
*rep	*	*	*	*	*
16ALL 16D'\	16ddLL 16f#X'/	.	4a/	-du-	.
16AJ 16D'\	16ddJ 16f#'/	.	.	.	.
8AJ 8D'\	8ddJ 8f#'/	.	.	.	.
*	*rep	*	*	*	*
16ALL 16D'\	16ddLL 16f#'/	.	8d/	-szko	.
16AJ 16D'\	16ddJ 16f#'/	.	.	.	.
8AJ 8D'\	8ddJ 8f#'/	.	8dd\	bo	.
*Xrep	*Xrep	*	*	*	*
=100	=100	=100	=100	=100	=100
*	*	*^	*	*	*
*rep	*	*	*	*	*	*
!	!	!	!LO:DY:a	!	!	!
!	!	!LO:MO:mod=.	!	!	!	!
16ALL 16D'\	16ddLL 16f#X/	f	f	4dd\	wo-	.
16AJ 16D'\	16ddJ 16f#/	.	.	.	.	.
8AJ 8D'\	8ddJ 8f#/	.	.	.	.	.
16ALL 16D'\	16ddLL 16f#/	.	.	8f#X/	-jak	.
16AJ 16D'\	16ddJ 16f#/	.	.	.	.	.
8AJ 8D'\	8cc#XJ 8g 8en^/	.	.	8a/	to	.
*Xrep	*	*	*	*	*	*
=101	=101	=101	=101	=101	=101	=101
16ALL 16D\	16ddLL 16f#X/	.	.	4a/	wiel-	.
16AJ 16D\	16ddJ 16f#/	.	.	.	.	.
8AJ 8D\	8ddJ 8f#/	.	.	.	.	.
!	!	!	!	!	!LO:MO:mod=-ki.	!
8AL 8D\	8ddL 8f#/	.	.	8d/	-ki	.
!	!	!	!LO:DY:a	!	!	!LO:DY:a
8D\J	8d/J	p	p	8d/	Wsze-	p
=102	=102	=102	=102	=102	=102	=102
16G\LL	16g/LL	.	.	(16g/LL	-la-	.
16F#X\	16f#X/	.	.	16f#X/JJ)	.	.
16G\	16g/	.	.	16g/	-ko	.
16A\JJ	16a/JJ	.	.	16a/	nie	.
!	!	!	!LO:HP:a	!	!	!
8B-\L	8b-\L	<	<	8b-\	bar-	.
16c\L	16cc\L	.	.	16cc\	-dzo	.
16d\JJ	16dd\JJ	[	[	16dd\	się	.
*	*	*v	*v	*	*	*
!!LO:LB:g=original
=103	=103	=103	=103	=103	=103
(4e-\	(4ee-^<\	.	4ee-^\	bo-	.
!	!LO:TX:t=P:mixed beam:problem	!	!	!LO:MO:mod=-ję.	!
8c\L)	8cc\L)	.	8cc\	-ję	.
!	!	!	!	!	!LO:DY:b
.	.	.	.	.	mf
8C\J	8ccJ 8g 8e-/	mf	8ee-\	Wsze-	.
=104	=104	=104	=104	=104	=104
8D'\L	8aL 8f#X 8d/	.	8dd\	-la-	.
!	!LO:MO:null:mod=!LO&colon;TX&colon;a&colon;i&colon;t=poco ritenuto	!	!LO:MO:mod=!LO&colon;TX&colon;a&colon;i&colon;t=poco ritenuto	!	!
!	!	!	!LO:TX:a:i:t=poco ritenu	!	!
8G'\J	8b-J 8g 8d/	.	16b-\	-ko	.
.	.	.	16dd\	nie	.
8E-'\L	8ccL 8g 8e-/	.	8cc\	bar-	.
8F'\J	8ccJ 8fn 8d/	.	16g/	-dzo	.
.	.	.	16a/	się	.
=105	=105	=105	=105	=105	=105
[4F [4BB-/	(>4a [>4f (<4e-^/	.	4cc^\	bo-	.
!	!	!	!	!LO:MO:mod=-ję.	!
8F] 8BB-/]	8b-) 8f] 8d/)	.	8b-\	-ję	.
8r	8r	.	8r	.	.
!!LO:LB:g=original
=106||	=106||	=106||	=106||	=106||	=106||
*k[enb-]	*k[enb-]	*	*k[enb-]	*	*
*M6/8	*M6/8	*	*M6/8	*	*
!	!LO:MO:mod=!LO&colon;TX&colon;a&colon;i&colon;t=Tempo primo\nDolce	!	!LO:MO:mod=!LO&colon;TX&colon;a&colon;i&colon;t=Tempo primo\nDolce	!	!
!	!LO:TX:a:i:t=Tempo 1º	!	!LO:TX:a:i:t=Tempo 1º	!	!LO:DY:b:rj
!	!	!	!LO:TX:b:i:t=dol&colon;:mod=	!	!
4F 4C 4AA 4FF/	(16a\LL	p	4.cc\	O!	p
.	16cc\	.	.	.	.
.	16ff\	.	.	.	.
.	16aa\	.	.	.	.
8F 8C 8AA 8FF/	16ccc\	.	.	.	.
.	16cc\JJ)	.	.	.	.
*rep	*rep	*	*	*	*
4F 4C 4AA 4FF/	(16a\LL	.	8cc\	mil-	.
.	16cc\	.	.	.	.
.	16ff\	.	8b-\	-sze	.
.	16aa\	.	.	.	.
8F 8C 8AA 8FF/	16ccc\	.	8a\	Kro-	.
.	16cc\JJ)	.	.	.	.
*Xrep	*Xrep	*	*	*	*
=107	=107	=107	=107	=107	=107
4E 4C 4BB- 4FF/	(16b-\LL	.	4.b-/	-sien-	.
.	16cc\	.	.	.	.
.	16ee\	.	.	.	.
.	16gg\	.	.	.	.
8E 8C 8BB- 8FF/	16ccc\	.	.	.	.
.	16cc\JJ)	.	.	.	.
*rep	*rep	*	*	*	*
!	!	!	!	!LO:MO:mod=-ka,	!
4E 4C 4BB- 4FF/	(16b-\LL	.	4g/	-ka	.
.	16cc\	.	.	.	.
.	16ee\	.	.	.	.
.	16gg\	.	.	.	.
!	!	!	!	!LO:MO:mod=I	!
8E 8C 8BB- 8FF/	16ccc\	.	8cc\	J	.
.	16cc\JJ)	.	.	.	.
*Xrep	*Xrep	*	*	*	*
=108	=108	=108	=108	=108	=108
4F 4C 4AA 4FF/	(16a\LL	.	4ff\	mi-	.
.	16cc\	.	.	.	.
.	16ff\	.	.	.	.
.	16aa\	.	.	.	.
!	!	!	!	!LO:MO:mod=-lej,	!
8F 8C 8AA 8FF/	16ccc\	.	8cc\	-lej	.
.	16cc\JJ)	.	.	.	.
*rep	*rep	*	*	*	*
4F 4C 4AA 4FF/	(16a\LL	.	8cc\	mi-	.
.	16cc\	.	.	.	.
.	16ff\	.	8b-\	-lej	.
.	16aa\	.	.	.	.
8F 8C 8AA 8FF/	16ccc\	.	8a\	z o-	.
.	16cc\JJ)	.	.	.	.
*Xrep	*Xrep	*	*	*	*
=109	=109	=109	=109	=109	=109
4E 4C 4BB- 4FF/	(16b-\LL	.	4.b-/	-kien-	.
.	16cc\	.	.	.	.
.	16ee\	.	.	.	.
.	16gg\	.	.	.	.
8E 8C 8BB- 8FF/	16ccc\	.	.	.	.
.	16cc\JJ)	.	.	.	.
*rep	*rep	*	*	*	*
4E 4C 4BB- 4FF/	(16b-\LL	.	4.g/	-ka	.
.	16cc\	.	.	.	.
.	16ee\	.	.	.	.
.	16gg\	.	.	.	.
8E 8C 8BB- 8FF/	16ccc\	.	.	.	.
.	16cc\JJ)	.	.	.	.
*Xrep	*Xrep	*	*	*	*
!!LO:LB:g=original
=110	=110	=110	=110	=110	=110
4F 4C 4AA 4FF/	(16a\LL	.	8f/	Za-	.
.	16cc\	.	.	.	.
.	16ff\	.	8a/	-dzwo-	.
.	16aa\	.	.	.	.
8r	16ccc\	.	8g/	-ni	.
.	16aa\JJ	.	.	.	.
[4.F (4.FF/	16ff\LL	.	8f/	pio-	.
.	16cc\	.	.	.	.
.	16a\)	.	8g/	-sen-	.
.	16g'\	.	.	.	.
.	16f'\	.	8a/	-ka	.
.	16e-X'\JJ	.	.	.	.
=111	=111	=111	=111	=111	=111
4F/] 4BB-/)	4d/	.	16b-\	la	.
.	.	.	16cc\	la	.
.	.	.	8dd\	la	.
8r	8r	.	8r	.	.
4Bn\ 4BBn\	4dd 4g#X 4f/	.	16dd\	la	.
.	.	.	16ee\	la	.
.	.	.	4ff;\	la	.
8r;	8r;	.	.	.	.
=112	=112	=112	=112	=112	=112
4c 4C\	8cc 8a 8f\	.	8r	.	.
!	!	!	!LO:MO:mod=!LO&colon;TX&colon;a&colon;i&colon;t=ritenuto	!	!
!	!	!	!LO:TX:a:i:t=ritenu	!	!
.	16aa'\LL	.	16a\	La	.
.	16bb-'\J	.	16b-\	la	.
8r	8ccc'\J	.	8cc\	la	.
4r;	16ff'\LL	.	16f/	la	.
.	16gg'\	.	16g/	la	.
.	16aa'\JJ	.	16a/	la	.
.	16r;	.	16r;	.	.
!	!LO:MO:null:mod=!LO&colon;TX&colon;a&colon;i&colon;t=a tempo	!	!	!	!
!	!	!	!LO:TX:a:i:t=a tempo	!	!
8r	8r	.	8c/	pio-	.
!!LO:PB:g=original
=113	=113	=113	=113	=113	=113
(<4.C\	(4.e [>4.c (4.B-</	.	4.g/	-senk-	.
!	!	!	!	!LO:MO:mod=-ka.	!
4F\)	4f) 4c] 4A</)	.	4f/	-ka	.
8r	8cc'\	.	8r	.	.
*clefG2	*	*	*	*	*
=114	=114	=114	=114	=114	=114
!LO:S:problem=note-level slur	!	!	!	!	!
(>4.b-^> (>4.e (<4.c/	(4.gg^<\	pp	2.r;	.	.
4a)) 4f/)	4ff\)	.	.	.	.
8r;	8r;	.	.	.	.
!!LO:LB:g=original
=115||	=115||	=115||	=115||	=115||	=115||
*clefF4	*	*	*	*	*
*k[b-]	*k[b-]	*	*k[b-]	*	*
*M2/4	*M2/4	*	*M2/4	*	*
!	!LO:MO:null:mod=!LO&colon;TX&colon;a&colon;i&colon;t=Meno vivo	!	!	!	!
!	!	!	!LO:TX:a:i:t=Meno vivo	!	!LO:DY:b:rj
8r	8r	.	8a/	Gro-	mf
=116	=116	=116	=116	=116	=116
*	*^	*	*	*	*
4D 4DD/	4dd/	4a 4f 4d\	mf	4dd\	-zi-	.
4G 4GG/	(<8cc^/L	4g 4d\	.	8cc\	-ła	.
.	8b-/J)	.	.	8b-\	mi	.
=117	=117	=117	=117	=117	=117	=117
8D 8DD/	16a/LL	8f 8d\	.	(16a/LL	cio-	.
.	16f/J	.	.	16f/JJ)	.	.
8r	8d/J	8r	.	8d/	-cia	.
4r	4r	4ryy	.	8r	.	.
.	.	.	.	8a/	o!	.
*	*v	*v	*	*	*	*
=118	=118	=118	=118	=118	=118
!	!	!	!	!LO:MO:mod=Gdzie	!
8c#X'\L	8aL 8g 8f'/	p	8ee\	gdzie	.
8d'\J	8aJ 8f'/	.	8dd\	tam!	.
8r;	8r;	.	8r;	.	.
!	!	!	!	!LO:MO:mod=Co	!
8r	8r	.	8ff\	co	.
!!LO:LB:g=original
=119	=119	=119	=119	=119	=119
(4E\	(>4g#X [>4e (<4d^/	.	4g#X^>/	cio-	.
8AA/)	8a) 8e] 8c#X/)	.	8a/	-ci!	.
8r	8r	.	8a/	Gro-	mf
=120	=120	=120	=120	=120	=120
*	*^	*	*	*	*
(4D\	4dd 4a 4f 4d/	4ryy	mf	4dd\	-zi-	.
4E\	8cc/L	4g 4c\	.	8cc\	-ła	.
.	8b-/J	.	.	8b-\	z u-	.
=121	=121	=121	=121	=121	=121	=121
4F\)	16a/LL	4f 4c\	.	(16a/LL	-śmie-	.
.	16g/J	.	.	16g/JJ)	.	.
.	8f/J	.	.	8f/	-chem	.
8r	8r	4ryy	.	8r	.	.
!	!	!	!LO:DY:rj	!	!	!LO:DY:b:rj
8BB-/	8b- 8f 8d/	.	p	8b-\	nie	p
.	.	.	f	.	.	.
*	*v	*v	*	*	*	*
!!LO:LB:g=original
=122	=122	=122	=122	=122	=122
4C\	(>4a 4f 4c/	.	(4a/	szcze-	.
4CC/	4g 4e 4c 4B-</	.	4g/)	.	.
=123	=123	=123	=123	=123	=123
!	!	!	!	!LO:MO:mod=-rze.	!
4FF\	4f 4c 4A</)	.	4f/	-rze	.
4r;	4r	.	8r	.	.
.	.	.	8a/	Ba-	.
=124	=124	=124	=124	=124	=124
.	.	.	(8qcc/	.	.
4r	8r	.	8b-\)	-ła-	.
.	(16qqee/LL	.	.	.	.
!	!LO:TX:t=P:problem=mixed beam	!	!	!	!
.	16qqff/JJ)	.	.	.	.
.	8gg\L	.	8a\	-mut?	.
.	(16qqe/LL	.	.	.	.
.	16qqf/JJ)	.	.	.	.
8r;	16g/Jk	.	8r;	.	.
.	16r;	.	.	.	.
!	!	!	!	!LO:MO:mod=O!	!
8r	8r	.	8a\	o!	.
!!LO:PB:g=original
=125	=125	=125	=125	=125	=125
4D\	4d 4A< 4F</	.	8ee\	gdzie	.
.	.	.	8dd\	tam	.
4r	4r	.	8r	.	.
!	!LO:MO:null:mod=!LO&colon;TX&colon;a&colon;i&colon;t=con espressione	!	!	!	!
!	!	!	!LO:TX:a:i:t=con esspreſsione	!	!
.	.	.	8dd\	to	.
=126	=126	=126	=126	=126	=126
*^	*^	*	*	*	*
!	!LO:MO:null:mod=!LO&colon;TX&colon;a&colon;i&colon;t=ritenuto	!	!	!	!	!	!
!	!	!	!	!	!LO:TX:b:i:t=ritenu	!	!
4d 4A/	4D\	4ff 4a/	4a 4f\	.	4ff\	a-	.
8dL 8A/	8D\L	8a/L	8f\L	.	8a\	-nioł	.
8d/J	8G\J	8bn/J	8gJ 8f\	.	8bn\	do-	.
=127	=127	=127	=127	=127	=127	=127	=127
4Bn;/	[>4G [4C\	4dd;/	4g 4f\	.	4dd;\	-bro-	.
!	!	!	!	!	!	!LO:MO:mod=-ci.	!
8c;/	8G] 8C\]	8cc;/	8g 8e\	.	8cc;\	-ci	.
!	!	!	!	!	!LO:TX:a:i:t=Recit&colon;	!	!
8r	8r	8r	8ryy	.	8c/	Ba-	.
*v	*v	*	*	*	*	*	*
*	*v	*v	*	*	*	*
!!LO:LB:g=original
=128	=128	=128	=128	=128	=128
4r	8r	.	8f/	-ła-	.
.	(16qqc/LL	.	.	.	.
.	16qqd/JJ	.	.	.	.
.	8e/L)	.	8e/	-mut?	.
*	*8va	*	*	*	*
.	(16qqcc/LL	.	.	.	.
.	16qqdd/JJ	.	.	.	.
8r;	16ee/Jk)	.	8r;	.	.
*	*X8va	*	*	*	*
.	16r;	.	.	.	.
8r	8r	.	8e/	ba-	.
=129	=129	=129	=129	=129	=129
4r	8r	.	8a/	-ła-	.
!	!LO:TX:a:i:t=loco	!	!	!	!
.	(16qqe/LL	.	.	.	.
.	16qqf/JJ	.	.	.	.
.	8g/L)	.	8g/	-mut?	.
*	*8va	*	*	*	*
.	(16qqee/LL	.	.	.	.
.	16qqff/JJ	.	.	.	.
8r;	16gg/Jk)	.	8r;	.	.
*	*X8va	*	*	*	*
!	!LO:MO:null:mod=!LO&colon;TX&colon;a&colon;i&colon;t=loco	!	!	!	!
!	!	!	!	!	!
.	16r;	.	.	.	.
!	!LO:TX:b:i:t=a tempo più vivo:mod=	!	!LO:TX:b:i:t=a tempo:mod=	!	!
!	!LO:MO:null:mod=!LO&colon;TX&colon;a&colon;i&colon;t=più vivo\na tempo	!	!	!	!
!	!	!	!LO:MO:mod=!LO&colon;TX&colon;a&colon;i&colon;t=più vivo\na tempo	!	!
!	!LO:TX:a:i:t=loco:mod=	!	!LO:TX:a:i:t=più vivo	!	!LO:DY:b:rj
8c\	8cc\	f	8cc\	Nie	f
=130	=130	=130	=130	=130	=130
8f\L	8ff\L	.	8ff\	wie-	.
!	!	!	!	!LO:MO:mod=-rzę,	!
16A\L	16a\L	.	16a\	-rzę	.
16B-\JJ	16b-\JJ	.	16b-\	nie	.
8c\	8cc\	.	8cc\	wie-	.
!	!	!	!	!LO:MO:mod=-rzę,	!
8r	8r	.	16f/	-rzę	.
.	.	.	16a/	nie	.
!!LO:LB:g=original
=131	=131	=131	=131	=131	=131
(4C (4CC\	(>4e^> [>4c (<4B-</	.	4g^>/	wie-	.
!	!	!	!	!LO:MO:mod=-rzę.	!
8F 8FF\))	8f) 8c] 8A</)	.	8f/	-rzę	.
8r	8r	.	8r	.	.
=132||	=132||	=132||	=132||	=132||	=132||
*M6/8	*M6/8	*	*M6/8	*	*
!	!LO:MO:null:mod=!LO&colon;TX&colon;a&colon;i&colon;t=Tempo primo	!	!LO:MO:mod=!LO&colon;TX&colon;a&colon;i&colon;t=Tempo primo	!	!
!	!	!	!LO:TX:a:i:t=Tempo 1º	!	!LO:DY:b:rj
4F 4C 4AA 4FF/	(16a\LL	p	4.cc\	O!	p
.	16cc\	.	.	.	.
!	!LO:TX:b:i:t=leggier&colon;	!	!	!	!
.	16ff\	.	.	.	.
.	16aa\	.	.	.	.
8F 8C 8AA 8FF/	16ccc\	.	.	.	.
.	16cc\JJ)	.	.	.	.
*rep	*rep	*	*	*	*
4F 4C 4AA 4FF/	(16a\LL	.	8cc\	mil-	.
.	16cc\	.	.	.	.
.	16ff\	.	8b-\	-sze	.
.	16aa\	.	.	.	.
8F 8C 8AA 8FF/	16ccc\	.	8a\	Kro-	.
.	16cc\JJ)	.	.	.	.
*Xrep	*Xrep	*	*	*	*
=133	=133	=133	=133	=133	=133
4E 4C 4BB- 4FF/	(16b-\LL	.	4.b-/	-sien-	.
.	16cc\	.	.	.	.
.	16ee\	.	.	.	.
.	16gg\	.	.	.	.
8E 8C 8BB- 8FF/	16ccc\	.	.	.	.
.	16cc\JJ)	.	.	.	.
*rep	*rep	*	*	*	*
!	!	!	!	!LO:MO:mod=-ka,	!
4E 4C 4BB- 4FF/	(16b-\LL	.	4g/	-ka	.
.	16cc\	.	.	.	.
.	16ee\	.	.	.	.
.	16gg\	.	.	.	.
!	!	!	!	!LO:MO:mod=I	!
8E 8C 8BB- 8FF/	16ccc\	.	8cc\	J	.
.	16cc\JJ)	.	.	.	.
*Xrep	*Xrep	*	*	*	*
=134	=134	=134	=134	=134	=134
4F 4C 4AA 4FF/	(16a\LL	.	4ff\	mi-	.
.	16cc\	.	.	.	.
.	16ff\	.	.	.	.
.	16aa\	.	.	.	.
!	!	!	!	!LO:MO:mod=-lej,	!
8F 8C 8AA 8FF/	16ccc\	.	8cc\	-lej	.
.	16cc\JJ)	.	.	.	.
*rep	*rep	*	*	*	*
4F 4C 4AA 4FF/	(16a\LL	.	8cc\	mi-	.
.	16cc\	.	.	.	.
.	16ff\	.	8b-\	-lej	.
.	16aa\	.	.	.	.
8F 8C 8AA 8FF/	16ccc\	.	8a\	z o-	.
.	16cc\JJ)	.	.	.	.
*Xrep	*Xrep	*	*	*	*
!!LO:LB:g=original
=135	=135	=135	=135	=135	=135
4E 4C 4BB- 4FF/	(16b-\LL	.	4.b-/	-kien-	.
.	16cc\	.	.	.	.
.	16ee\	.	.	.	.
.	16gg\	.	.	.	.
8E 8C 8BB- 8FF/	16ccc\	.	.	.	.
.	16cc\JJ)	.	.	.	.
!	!	!	!LO:MO:mod=!null:null	!	!
!	!	!	!LO:N:vis=4	!	!
*rep	*rep	*	*	*	*
4E 4C 4BB- 4FF/	(16b-\LL	.	4.g/	-ka	.
.	16cc\	.	.	.	.
.	16ee\	.	.	.	.
.	16gg\	.	.	.	.
8E 8C 8BB- 8FF/	16ccc\	.	.	.	.
.	16cc\JJ)	.	.	.	.
*Xrep	*Xrep	*	*	*	*
=136	=136	=136	=136	=136	=136
4F 4C 4AA 4FF/	(16a\LL	.	8f/	Za-	.
.	16cc\	<	.	.	.
.	16ff\	.	8a/	-dzwo-	.
.	16aa\	.	.	.	.
8r	16ccc\	.	8g/	-ni	.
.	16ff\JJ)	.	.	.	.
!LO:S:problem=note-level slur	!	!	!	!	!
(>4.e-X (>4.c (<4.F\	8fff\	[	8f/	pio-	.
.	4aatt\	>	8g/	-sen-	.
.	.	]	8a/	-ka	.
.	(16qqgg/LL	.	.	.	.
.	16qqaa/JJ)	.	.	.	.
=137	=137	=137	=137	=137	=137
4d)) 4B-\)	4bb-\	.	16b-\	la	.
.	.	.	16cc\	la	.
.	.	.	8dd\	la	.
8r	8r	.	8r	.	.
4Bn 4BBn\	4dd 4g#X 4f^/	.	16dd\	la	.
.	.	.	16ee\	la	.
.	.	.	4ff;\	la	.
8r;	8r;	.	.	.	.
!!LO:PB:g=original
=138	=138	=138	=138	=138	=138
!	!LO:TX:b:i:t=poco ritenu	!	!	!	!
4c 4C\	8cc 8a 8f/	.	8r	.	.
!	!	!	!LO:TX:a:i:t=poco ritenu	!	!
.	16ff'\LL	.	16a\	La	.
.	16gg'\J	.	16b-\	la	.
8r	8aa'\J	.	8cc\	la	.
4r	16A'/LL	.	16f/	la	.
.	16c'/	.	16g/	la	.
.	16f'/JJ	.	16a/	la	.
.	16r;	.	16r;	.	.
!	!LO:MO:mod=!LO&colon;TX&colon;a&colon;i&colon;t=a tempo	!	!	!	!
!	!LO:TX:b:i:t=a tempo	!	!LO:TX:a:i:t=a tempo	!	!
8r	8r	.	8c/	pio-	.
=139	=139	=139	=139	=139	=139
!	!LO:S:problem=note-level slur	!	!	!	!
(<4.C\	(>4.e [>4.c (>4.B-</	.	4.g/	-sen-	.
!	!	!	!	!LO:MO:mod=-ka.	!
4F\)	4f) 4c] 4A</)	.	4f/	-ka	.
8r	8cc\	.	8r	.	.
*clefG2	*	*	*	*	*
=140	=140	=140	=140	=140	=140
!LO:S:s=1:note:problem=note-level slur	!	!	!	!	!
(>4.b- (>4.e (<4.c/	(4.gg^<\	pp	2.r;	.	.
4a 4f/))	4ff\)	.	.	.	.
8r;	8r;	.	.	.	.
!!LO:LB:g=original
=141||	=141||	=141||	=141||	=141||	=141||
*clefF4	*	*	*	*	*
!	!	!	!	!	!LO:DY:b:rj
4F\	4f 4c 4A/	p	8f/	On	p
.	.	.	8a/	i-	.
8r	8r	.	8g/	-dzie	.
4F\	4f 4e-X 4c/	.	8f/	i	.
.	.	.	8g/	kła-	.
8r	8r	.	8a/	-nia	.
=142	=142	=142	=142	=142	=142
4BB-/	4f 4d 4B-/	.	8b-\	i	.
.	.	.	8cc\	zbli-	.
8r	8r	.	8dd\	-ża	.
4GG/	4g 4d 4B-/	.	8g/	się	.
.	.	.	8a/	do	.
!	!	!	!	!LO:MO:mod=mnie,	!
8r	8r	.	8b-/	mnie	.
!!LO:LB:g=original
=143	=143	=143	=143	=143	=143
!	!	!	!	!LO:MO:mod=I	!
4C\	4g 4e 4B-/	.	8g/	J	.
.	.	.	8cc\	mó-	.
8r	8r	.	8b-\	-wi	.
!	!	!	!LO:MO:mod=!LO&colon;TX&colon;a&colon;i&colon;t=ritenuto	!	!
!	!	!	!LO:TX:t=ritenu_:dur=9e:ext=ud:problem=tekst with extention lines	!	!
4F\	4f 4c 4A/	.	8a/	tak	.
.	.	.	8g/	pię-	.
8r	8r	.	16f/	-knie	.
.	.	.	16f/	i	.
=144	=144	=144	=144	=144	=144
*	*	*^	*	*	*
!	!LO:S:problem=note-level slur	!	!LO:DY:a	!	!	!
4D\	(>4.f (>4.Bn< [>4.G</	pp	pp	4.g/	z ci-	.
8GG\	.	.	.	.	.	.
!	!	!	!	!	!LO:MO:mod=-cha.	!
4C\	4e 4c<) 4G</]	.	.	4c/	-cha	.
8r	8r	.	.	8r	.	.
*	*	*v	*v	*	*	*
=145	=145	=145	=145	=145	=145
!	!LO:MO:mod=!LO&colon;TX&colon;a&colon;i&colon;t=a tempo	!	!	!	!
!	!LO:TX:b:i:t=a tempo	!	!LO:TX:a:i:t=a tempo	!	!
4F\	4f 4c 4A/	.	8f/	Wstyd	.
.	.	.	8a/	o-	.
8r	8r	.	8g/	-czu	.
4F\	4f 4e-X 4c/	.	8f/	mi	.
.	.	.	8g/	po-	.
8r	8r	.	8a/	-dnieść	.
!!LO:LB:g=original
=146	=146	=146	=146	=146	=146
4B-\	4f 4d/	.	8b-\	tak	.
.	.	.	8cc\	chwa-	.
8r	8r	.	8dd\	-li	.
!	!	!	!	!	!LO:DY:a
4F#X\	4a 4A/	pp	8a\	nie-	pp
.	.	.	(8qqcc^>/	.	.
.	.	.	8b-\)	-skro-	.
!	!	!	!	!LO:MO:mod=-mnie.	!
8r	8r	.	8a\	-mnie	.
=147	=147	=147	=147	=147	=147
!	!	!	!	!	!LO:DY:a
4G\	4g 4d 4B-/	mf	8g\	Po-	mf
.	.	.	8b-\	-chleb-	.
8r;	8r;	.	16g\	-ca	.
.	.	.	16r;	.	.
!	!LO:MO:mod=!LO&colon;TX&colon;a&colon;i&colon;t=ritenuto	!	!LO:MO:mod=!LO&colon;TX&colon;a&colon;i&colon;t=ritenuto	!	!
!	!LO:TX:b:t=ritenu_:dur=3e:ext=ud:problem=tekst with extention lines	!	!LO:TX:t=ritenu_:dur=3e:ext=ud:problem=tekst with extention lines	!	!
4BB-;/	4g 4f 4d-X 4B-^;/	.	8g\	o!	.
!	!	!	!	!LO:MO:mod=Bie-	!
.	.	.	8b-\	bie-	.
8r	8r	.	16dd-X;\	-dny!	.
!	!	!	!	!LO:MO:mod=on.	!
.	.	.	16dd-\	on	.
!!LO:PB:g=original
=148	=148	=148	=148	=148	=148
!	!LO:MO:mod=!LO&colon;TX&colon;a&colon;i&colon;t=a tempo	!	!	!	!
!	!LO:TX:b:i:t=a tempo	!	!LO:TX:a:i:t=a tempo	!	!
(4.C\	(>4.g 4.e [>4.c (<4.B-/	.	(4.cc\	.	>
4F\)	4f) 4c] 4A/)	.	4f/)	.	]
8r;	8r;	.	8r;	.	.
=149||	=149||	=149||	=149||	=149||	=149||
!	!	!	!	!	!LO:DY:b:rj
8F\L	8f/L	p	8f/	O!	p
8A\	8a/	.	8a/	do-	.
8G\J	8g/J	.	8g/	-bry	.
8F\L	8f/L	.	8f/	i	.
8G\	8g/	.	8g/	grze-	.
8A\J	8a/J	.	8a/	-czny	.
!!LO:LB:g=original
=150	=150	=150	=150	=150	=150
8B-\L	8b-\L	.	8b-\	i	.
8c\	8cc\	.	8cc\	mi-	.
8d\J	8dd\J	.	8dd\	-ły	.
4G\	4g/	.	8g/	chło-	.
.	.	.	8a/	-pczy-	.
!	!	!	!	!LO:MO:mod=-na,	!
8r	8r	.	8b-/	-na	.
=151	=151	=151	=151	=151	=151
4C\	4g 4e 4c/	.	8e/	Lecz	.
.	.	.	8cc\	bę-	.
8r	8r	.	8b-\	-dę	.
!	!LO:MO:mod=!LO&colon;TX&colon;a&colon;i&colon;t=ritenuto	!	!LO:MO:mod=!LO&colon;TX&colon;a&colon;i&colon;t=ritenuto	!	!
!	!LO:TX:b:t=ritenu_:dur=8e:ext=ud:problem=tekst with extention lines	!	!LO:TX:t=ritenu_:dur=6e:ext=ud:problem=tekst with extention lines	!	!
4F\	4a 4f 4c/	.	8a/	o!	.
.	.	.	8ff\	bę-	.
8r	8r	.	16ee\	-dę	.
.	.	.	16ee\	o-	.
!!LO:LB:g=original
=152	=152	=152	=152	=152	=152
*^	*	*	*	*	*
!	!	!LO:S:problem=note-level slur	!	!	!	!
4.Bn/	[4.G\	(>4.dd &(>(<4.f/	>	4.dd\	-stro-	.
!	!	!	!	!	!LO:MO:mod=-żna.	!
4c/	4G] 4C\	4cc) 4e/&))	]	4cc\	-żna	.
8r	8r	8r	.	8r	.	.
*v	*v	*	*	*	*	*
=153	=153	=153	=153	=153	=153
!	!LO:MO:mod=!LO&colon;TX&colon;a&colon;i&colon;t=a tempo	!	!	!	!
!	!LO:TX:b:i:t=a tempo	!	!LO:TX:a:i:t=a tempo	!	!
(8F\L	(8f/L	.	8f/	Ca-	.
8A\	8a/	.	8a/	-ło-	.
8G\J	8g/J	.	8g/	-wać	.
8F\L	8f/L	.	8f/	chce	.
8G\	8g/	.	8g/	ró-	.
8A\J)	8a/J)	.	8a/	-żę,	.
!!LO:LB:g=original
=154	=154	=154	=154	=154	=154
!	!	!	!	!	!LO:DY:t=pf
4B-\	4b-\	.	8b-\	da-	fp
.	.	.	8cc\	-li-	.
8r	8r	.	8dd\	-bóg	.
4F#X\	4a 4A/	.	8a\	za-	.
.	.	.	(8qcc/	.	.
.	.	.	8b-\)	-czy-	.
!	!	!	!	!LO:MO:mod=-na!	!
8r;	8r;	.	16a\	-na	.
.	.	.	16r;	.	.
=155	=155	=155	=155	=155	=155
4G\	4g 4d 4B-/	.	8g/	O	.
.	.	.	8a/	pro-	.
!	!	!	!	!	!LO:DY:a
8r	8r	.	16b-/	-szę	<
.	.	.	16r	.	.
4GG/	4g 4d 4B-/	.	8b-\	nie	.
.	.	.	8cc\	mo-	[
!	!	!	!	!LO:MO:mod=-żna,	!
8r;	8r;	.	16dd\	-żna	.
.	.	.	32r;	.	.
.	.	.	32dd^\	nie	.
!!LO:PB:g=original
=156	=156	=156	=156	=156	=156
!	!LO:S:problem=note-level slur	!	!	!	!
(<4.C\	(>4.e [>4.c (>4.B-</	.	4.e^>/	mo-	.
!	!	!	!	!LO:MO:mod=-żna!	!
4F\)	4f) 4c] 4A</)	.	4f/	-żna	.
8r	8cc\	.	8r	.	.
=157||	=157||	=157||	=157||	=157||	=157||
!	!LO:MO:null:mod=!LO&colon;TX&colon;a&colon;i&colon;t=Più animato\ndolce	!	!	!	!
!LO:TX:a:i:t=Più animato:mod=	!	!	!LO:TX:a:i:t=dolce	!	!
!	!	!	!LO:TX:a:i:t=Più animato	!	!LO:DY:b:rj
4F 4C 4AA 4FF/	(16a\LL	p	4.cc\	O!	p
.	16cc\	.	.	.	.
!	!LO:TX:b:i:t=leggier&colon;	!	!	!	!
.	16ff\	.	.	.	.
.	16aa\	.	.	.	.
8F 8C 8AA 8FF/	16ccc\	.	.	.	.
.	16cc\JJ)	.	.	.	.
*rep	*rep	*	*	*	*
4F 4C 4AA 4FF/	(16a\LL	.	8cc\	mil-	.
.	16cc\	.	.	.	.
.	16ff\	.	8b-\	-sze	.
.	16aa\	.	.	.	.
!	!	!	!	!LO:MO:mod=Kro-	!
8F 8C 8AA 8FF/	16ccc\	.	8a\	kro-	.
.	16cc\JJ)	.	.	.	.
*Xrep	*Xrep	*	*	*	*
!!LO:LB:g=original
=158	=158	=158	=158	=158	=158
4E 4C 4BB- 4FF/	(16b-\LL	.	4.b-/	-sien-	.
.	16cc\	.	.	.	.
.	16ee\	.	.	.	.
.	16gg\	.	.	.	.
8E 8C 8BB- 8FF/	16ccc\	.	.	.	.
.	16cc\JJ)	.	.	.	.
*rep	*rep	*	*	*	*
4E 4C 4BB- 4FF/	(16b-\LL	.	4g/	-ka	.
.	16cc\	.	.	.	.
.	16ee\	.	.	.	.
.	16gg\	.	.	.	.
!	!	!	!	!LO:MO:mod=I	!
8E 8C 8BB- 8FF/	16ccc\	.	8cc\	J	.
.	16cc\JJ)	.	.	.	.
*Xrep	*Xrep	*	*	*	*
=159	=159	=159	=159	=159	=159
4F 4C 4AA 4FF/	(16a\LL	.	4ff\	mi-	.
.	16cc\	.	.	.	.
.	16ff\	.	.	.	.
.	16aa\	.	.	.	.
!	!	!	!	!LO:MO:mod=-lej,	!
8F 8C 8AA 8FF/	16ccc\	.	8cc\	-lej	.
.	16cc\JJ)	.	.	.	.
*rep	*rep	*	*	*	*
4F 4C 4AA 4FF/	(16a\LL	.	8cc\	mi-	.
.	16cc\	.	.	.	.
.	16ff\	.	8b-\	-lej	.
.	16aa\	.	.	.	.
8F 8C 8AA 8FF/	16ccc\	.	8a\	z o-	.
.	16cc\JJ)	.	.	.	.
*Xrep	*Xrep	*	*	*	*
!!LO:LB:g=original
=160	=160	=160	=160	=160	=160
4E 4C 4BB- 4FF/	(16b-\LL	.	4.b-/	-kien-	.
.	16cc\	.	.	.	.
.	16ee\	.	.	.	.
.	16gg\	.	.	.	.
8E 8C 8BB- 8FF/	16ccc\	.	.	.	.
.	16cc\JJ)	.	.	.	.
*rep	*rep	*	*	*	*
!	!	!	!	!LO:MO:mod=-ka,	!
4E 4C 4BB- 4FF/	(16b-\LL	.	4.g/	-ka	.
.	16cc\	.	.	.	.
.	16ee\	.	.	.	.
.	16gg\	.	.	.	.
8E 8C 8BB- 8FF/	16ccc\	.	.	.	.
.	16cc\JJ)	.	.	.	.
*Xrep	*Xrep	*	*	*	*
=161	=161	=161	=161	=161	=161
4F 4C 4AA 4FF/	(16a\LL	.	8f/	Za-	.
.	16cc\	<	.	.	.
.	16ff\	.	8a/	-dzwo-	.
.	16aa\	.	.	.	.
8r	16ccc\	.	8g/	-ni	.
.	16ff\JJ	.	.	.	.
!LO:S:problem=note-level slur	!	!	!	!	!
(>4.e-X (>4.c (<4.F\	8fff'\)	[	8f/	pio-	.
.	4aatt\	>	8g/	-sen-	.
.	.	]	8a/	-ka	.
.	(16qqgg/LL	.	.	.	.
.	16qqaa/JJ)	.	.	.	.
!!LO:LB:g=original
=162	=162	=162	=162	=162	=162
!LO:TX:a:t=P:problem=brak zakończenia dwóch łuków	!	!	!	!	!
4d) 4B-\	4bb-\	.	16b-\	la	.
.	.	.	16cc\	la	.
.	.	.	8dd\	la	.
8r	8r	.	8r	.	.
4Bn 4BBn\	4dd 4g#X 4f^/	.	16dd\	la	.
.	.	.	16ee\	la	.
.	.	.	4ff;\	la	.
8r;	8r;	.	.	.	.
=163	=163	=163	=163	=163	=163
4c 4C\	4cc 4a 4f/	.	8r	.	.
!	!	!	!	!	!LO:DY:a
.	.	.	16f/	la	f
.	.	.	16g/	la	.
!	!LO:MO:mod=!LO&colon;TX&colon;a&colon;i&colon;t=ritenuto	!	!	!	!
!	!LO:TX:b:t=ritenu_:dur=3e:ext=ud:problem=tekst with extention lines	!	!	!	!
8r	8r	.	16a/	la	.
!	!	!	!LO:MO:mod=!LO&colon;TX&colon;a&colon;i&colon;t=ritenuto	!	!
!	!	!	!LO:TX:a:i:t=ritenu	!	!
.	.	.	16b-/	la	.
4r	4r;	.	16cc\	la	.
.	.	.	16dd\	la	.
.	.	.	16cc\	la	.
.	.	.	16r;	.	.
!	!	!	!LO:TX:a:i:t=con forza	!	!
!	!LO:MO:mod=!LO&colon;TX&colon;a&colon;i&colon;t=a tempo\ncon forza	!	!LO:MO:mod=!LO&colon;TX&colon;a&colon;i&colon;t=a tempo	!	!
!	!LO:TX:b:i:t=a tempo	!	!LO:TX:a:i:t=a tem	!	!
8r	8r	.	8cc\	pio-	.
!!LO:PB:g=original
=164	=164	=164	=164	=164	=164
4.C 4.CC/	4.ee 4.cc 4.b- 4.g/	ff	4.gg\	-sen-	.
4F 4FF/	4ff 4cc 4a 4f/	.	4ff\	-ka	.
!	!LO:MO:mod=!LO&colon;TX&colon;a&colon;i&colon;t=Fine	!	!LO:MO:null:mod=!LO&colon;TX&colon;a&colon;i&colon;t=Fine	!	!
!	!LO:TX:b:i:t=Fine	!	!	!	!
8r;	8r;	.	8r;	.	.
==	==	==	==	==	==
*-	*-	*-	*-	*-	*-
!!!system-decoration: s1{(s2,s3)}
!!!RDF**kern: > = above
!!!RDF**kern: < = below
!!!filter-modern: sic -sq | autostem -r | humtr -p | shed -e "s/TX(.*):t=P:/tx$1:t=P:/LG" | shed -e "s/LO:DY:(a|b|rj)/LO:dy:$1/L" |  shed -e "s/^(X?)rep$/$1REP/I" | shed -k -e "s/yy//" | modori -m
!!!ENC: Marta Lawrence
!!!END: 2021-04-14
!!!EED: Anastazja Marusiak
!!!EEV: 2021-04-08
!!!ENC-modern: Leszek Kubiak
!!!END-modern: 2022-07-29
